fixtures/presets/faded.lrtemplate
s = {
	id = "8A3F5C2E-1B7D-4E90-A6C4-2D9E0F1B3A57",
	internalName = "Synthetic Faded",
	title = ZSTR "$$$/Lightwell/Fixtures/Faded=Faded Matte",
	type = "Develop",
	-- A synthetic preset written for Lightwell's importer tests, not exported from Lightroom.
	value = {
		settings = {
			AutoGrayscaleMix = true,
			Blacks2012 = 20,
			CameraProfile = [==[Camera [Faded]]==],
			Clarity2012 = -10,
			Contrast2012 = -15,
			ConvertToGrayscale = false,
			EnableColorAdjustments = false,
			EnableDetail = true,
			EnableEffects = true,
			EnableSplitToning = false,
			Exposure2012 = 0.25,
			GrainAmount = 12,
			GrainFrequency = 50,
			GrainSize = 25,
			HueAdjustmentAqua = 10,
			IncrementalTemperature = 5,
			Look = {
				Amount = 0.5,
				Name = "Synthetic Chrome",
				Parameters = {
					Version = 1,
				},
			},
			LuminanceAdjustmentGreen = 0,
			PostCropVignetteAmount = -12,
			PostCropVignetteFeather = 50,
			PostCropVignetteMidpoint = 50,
			PostCropVignetteRoundness = 0,
			PostCropVignetteStyle = 2,
			ProcessVersion = "6.7",
			RetouchInfo = {},
			SaturationAdjustmentBlue = -30,
			Sharpness = 25,
			SplitToningHighlightHue = 40,
			SplitToningHighlightSaturation = 18,
			--[[ The curve pair below is Lightroom's flat
			     interleaved form: x1, y1, x2, y2, and so on. ]]
			ToneCurveName2012 = "Custom \"S\"",
			ToneCurvePV2012 = { 0, 28, 64, 70, 192, 188, 255, 240, },
			ToneCurvePV2012Blue = {
				0,
				0,
				255,
				255,
			},
			WhiteBalance = "As Shot",
		},
		uuid = "C1D2E3F4-A5B6-4C7D-8E9F-0A1B2C3D4E5F",
	},
	version = 0,
}
