fixtures/presets/out-of-range.xmp
<x:xmpmeta xmlns:x="adobe:ns:meta/" x:xmptk="Lightwell synthetic fixture">
 <rdf:RDF xmlns:rdf="http://www.w3.org/1999/02/22-rdf-syntax-ns#">
  <rdf:Description rdf:about=""
    xmlns:crs="http://ns.adobe.com/camera-raw-settings/1.0/"
    crs:PresetType="Normal"
    crs:Name="Too Bright"
    crs:ProcessVersion="15.4"
    crs:Exposure2012="+6.0"
    crs:Contrast2012="-100"
    crs:Shadows2012="+20"
    crs:Clarity2012="-100.5"
    crs:Saturation="+100"
    crs:Vibrance="lots"
    crs:PostCropVignetteMidpoint="-10"
    crs:Temperature="5500"
    crs:Tint="+10"
    crs:WhiteBalance="Custom"
    crs:IncrementalTemperature="+15"/>
 </rdf:RDF>
</x:xmpmeta>
