fixtures/presets/profile.xmp
<x:xmpmeta xmlns:x="adobe:ns:meta/" x:xmptk="Luxforge synthetic fixture">
 <rdf:RDF xmlns:rdf="http://www.w3.org/1999/02/22-rdf-syntax-ns#">
  <rdf:Description rdf:about=""
    xmlns:crs="http://ns.adobe.com/camera-raw-settings/1.0/"
    crs:PresetType="Look"
    crs:Cluster=""
    crs:UUID="9F8E7D6C5B4A49382716A5B4C3D2E1F0"
    crs:SupportsAmount="True"
    crs:SupportsColor="True"
    crs:SupportsMonochrome="False"
    crs:Version="16.0"
    crs:ProcessVersion="11.0"
    crs:ConvertToGrayscale="False"
    crs:Saturation="+10"
    crs:HueAdjustmentRed="-5">
   <crs:Name>
    <rdf:Alt>
     <rdf:li xml:lang="x-default">Synthetic Chrome</rdf:li>
    </rdf:Alt>
   </crs:Name>
   <crs:Group>
    <rdf:Alt>
     <rdf:li xml:lang="x-default">Synthetic Profiles</rdf:li>
    </rdf:Alt>
   </crs:Group>
  </rdf:Description>
 </rdf:RDF>
</x:xmpmeta>
