fixtures/presets/sidecar.xmp
<?xpacket begin="﻿" id="W5M0MpCehiHzreSzNTczkc9d"?>
<x:xmpmeta xmlns:x="adobe:ns:meta/" x:xmptk="Lightwell synthetic fixture">
 <rdf:RDF xmlns:rdf="http://www.w3.org/1999/02/22-rdf-syntax-ns#">
  <rdf:Description rdf:about=""
    xmlns:tiff="http://ns.adobe.com/tiff/1.0/"
    xmlns:exif="http://ns.adobe.com/exif/1.0/"
    xmlns:aux="http://ns.adobe.com/exif/1.0/aux/"
    tiff:Make="Synthetic"
    tiff:Model="Test Camera"
    tiff:Orientation="1"
    exif:ExposureTime="1/125"
    exif:FNumber="56/10"
    exif:ISOSpeedRatings="400"
    aux:SerialNumber="0000000">
   <exif:Flash rdf:parseType="Resource">
    <exif:Fired>False</exif:Fired>
   </exif:Flash>
  </rdf:Description>
  <rdf:Description rdf:about=""
    xmlns:crs="http://ns.adobe.com/camera-raw-settings/1.0/"
    crs:Version="16.0"
    crs:ProcessVersion="15.4"
    crs:RawFileName="DSC_0001.NEF"
    crs:AlreadyApplied="True"
    crs:WhiteBalance="As Shot"
    crs:Temperature="5450"
    crs:Tint="+8"
    crs:Exposure2012="+0.20"
    crs:Shadows2012="+10"
    crs:HasCrop="True"
    crs:CropTop="0.05"
    crs:CropLeft="0"
    crs:CropBottom="0.95"
    crs:CropRight="1"
    crs:CropAngle="0"
    crs:CropConstrainToWarp="0"
    crs:LensProfileEnable="1"
    crs:LensProfileSetup="LensDefaults"
    crs:LuminanceSmoothing="0"
    crs:LuminanceNoiseReductionDetail="50"
    crs:ColorNoiseReduction="25"
    crs:ColorNoiseReductionDetail="50"
    crs:ColorNoiseReductionSmoothness="50"
    crs:CameraProfile="Camera Standard">
   <crs:MaskGroupBasedCorrections>
    <rdf:Seq/>
   </crs:MaskGroupBasedCorrections>
  </rdf:Description>
  <rdf:Description rdf:about=""
    xmlns:dc="http://purl.org/dc/elements/1.1/">
   <dc:subject>
    <rdf:Bag>
     <rdf:li>synthetic</rdf:li>
    </rdf:Bag>
   </dc:subject>
  </rdf:Description>
 </rdf:RDF>
</x:xmpmeta>
<?xpacket end="w"?>
